X: 39616
T: Temperance
R: reel
M: 4/4
K: Gmajor
G2GF GABc|d2ge dBAc|BEED EFGA|BGAF GFEF|
DGGF GABc|d2ge dBAc|BEED EFGA|BGAF G2GE|
DGGF GABc|d2ge dBAc|BEED EFGA|BGAF GFEF|
DGGF GABc|d2ge dBAc|BEED EFGA|BGAF G2GA||
|:Beed e2ef|geaf gfed|Add^c d2de|fgaf gfed|
e2ed e2ef|geaf gfed|BEED EFGA|1 BGAF G2GA:|2 BGAF GFED||
P:variation of line 3:
DGGF GABc|d2ge dBAc|BE~E2 cE~E2|dE~E2 cEGE|

